X: 1
T: Scottish Reel 2 - D
R: reel
M: 4/4
L: 1/8
K: D
|: "D"dA~A2 defb | af~f2 defd | "G"gB~B2 GB~B2 | "A"ABce afge |
   "D"dA~A2 defb | af~f2 defd | "G"gB~B2 GB~B2 |1 "A"ABcA "D"d3 c :|2 "A"ABcA "D"d2dc |
|: "Bm"BF~F2 Bcdc | "G"BG~G2 Bcdc | "D"AD~D2 DEFD | DEFA BAdc |
   "Bm"BF~F2 Bcdc | "G"BG~G2 Bcdc | "A"ABce faAB | cefa fedc :|

